X:1
T:Rowley, 12.9.12.99
T:Rowley, 12.9.12.99
T:Lowell Mason, 1835
T:Public Domain Courtesy of the Cyber Hymnal™
C:Lowell Mason, 1835
Z:Public Domain
Z:Courtesy of the Cyber Hymnal™
%%score ( 1 2 ) ( 3 4 )
L:1/8
Q:1/4=110
M:3/4
K:G
V:1 treble 
V:2 treble 
V:3 bass 
V:4 bass 
V:1
 [DG]>[DA] | [GB]2 [FA]2 G2 | [Fd]4 [GB]>[Gd] | [Ac]2 [GB]2 [FA]2 | [GB]4 [Gd]>[Gd] | %5
 [Gd]2 [GB]2 [Gd]2 | [Dd]2 [Dc]2 [DB]2 | [DA]4 [FA]>[FA] | [FA]2 [GB]2 [Ac]2 | [GB]4 [FA]>[FA] | %10
 [GB]2 [GB]2 [G^c]2 | [Fd]4 [Bd]>[Bd] | [Bd]2 [GB]2 [Bd]2 | [Bd]2 [Ac]2 [GB]2 | [FA]4 [Gd]>[Gd] | %15
 [Gd]2 [GB]2 [Gd]2 | [Ac]2 [GB]2 [FA]2 | G4 |] %18
V:2
 x2 | x4 G2 | x6 | x6 | x6 | x6 | x6 | x6 | x6 | x6 | x6 | x6 | x6 | x6 | x6 | x6 | x6 | G4 |] %18
V:3
 [G,B,]>[G,C] | [G,D]2 [D,C]2 [E,B,]2 | [D,D]4 [G,D]>[G,B,] | [C,E]2 [D,D]2 [D,D]2 | %4
 [G,D]4 [G,B,]>[G,B,] | [G,B,]2 G,2 [G,B,]2 | [F,A,]2 [F,A,]2 G,2 | [D,F,]4 [D,D]>[D,D] | %8
 [D,D]2 [D,D]2 [D,D]2 | [G,D]4 [D,D]>[D,D] | [G,D]2 [E,E]2 [A,E]2 | [D,D]4 z2 | z6 | z6 | %14
 z4 [G,B,]>[G,B,] | [G,B,]2 G,2 [B,,D]2 | [C,E]2 [D,D]2 [D,C]2 | [G,,B,]4 |] %18
V:4
 x2 | x6 | x6 | x6 | x6 | x2 G,2 x2 | x4 G,2 | x6 | x6 | x6 | x6 | x6 | x6 | x6 | x6 | x2 G,2 x2 | %16
 x6 | x4 |] %18

